X: 9529
T: Darling Girls, The
R: reel
M: 4/4
K: Adorian
~A,2A,C ~E2EF|GEAF GEDG|EAAF GEDG|EAAF GDB,D|
~A,2A,C ~E2EF|GEAF GEDG|EA, ~A,2EA,CE|DB,G,B, A,B,CD||
EA, ~A,2EA,CE|DFAF GBdB|cAEA BGDG|FDB,D EB,DB,|
G,A, ~A,2EA,CE|DFAF GBdB|cA ~A2eAcA|BAGB ABcd||
|:eAAg gedg|eAAB ~c2cd|eAAg gedg|eaaf ~g2fg|
eAAg gedg|eAAB cBce|dB ~B2gB ~B2|1 GB ~B2ABcd:|2 GBAF GDB,G,||

